Pods/ProtonCore-UIFoundations/libraries/UIFoundations/Sources/Assets.xcassets/Images/IconSet/ic-text-underline.imageset/ic-text-underline.svg

<svg width="24" height="24" viewBox="0 0 24 24" fill="none" xmlns="http://www.w3.org/2000/svg">
<path fill-rule="evenodd" clip-rule="evenodd" d="M3 2.25C3 1.83579 3.33579 1.5 3.75 1.5H8.25C8.66421 1.5 9 1.83579 9 2.25C9 2.66421 8.66421 3 8.25 3H6.75V12.75C6.75 15.6495 9.1005 18 12 18C14.8995 18 17.25 15.6495 17.25 12.75V3H15.75C15.3358 3 15 2.66421 15 2.25C15 1.83579 15.3358 1.5 15.75 1.5H20.25C20.6642 1.5 21 1.83579 21 2.25C21 2.66421 20.6642 3 20.25 3H18.75V12.75C18.75 16.4779 15.7279 19.5 12 19.5C8.27208 19.5 5.25 16.4779 5.25 12.75V3H3.75C3.33579 3 3 2.66421 3 2.25ZM3.75 21C3.33579 21 3 21.3358 3 21.75C3 22.1642 3.33579 22.5 3.75 22.5H20.25C20.6642 22.5 21 22.1642 21 21.75C21 21.3358 20.6642 21 20.25 21H3.75Z" fill="#0C0C14"/>
</svg>

<svg xmlns="http://www.w3.org/2000/svg" width="24" height="24" viewBox="0 0 24 24">
  <g class="ic-text-underline">
    <path fill-rule="evenodd" d="M3 2.25a.75.75 0 0 1 .75-.75h4.5a.75.75 0 0 1 0 1.5h-1.5v9.75a5.25 5.25 0 1 0 10.5 0V3h-1.5a.75.75 0 0 1 0-1.5h4.5a.75.75 0 0 1 0 1.5h-1.5v9.75a6.75 6.75 0 0 1-13.5 0V3h-1.5A.75.75 0 0 1 3 2.25ZM3.75 21a.75.75 0 0 0 0 1.5h16.5a.75.75 0 0 0 0-1.5H3.75Z" class="Icon"/>
  </g>
</svg>
